!!!COM: Mozart, Wolfgang Amadeus
!!!OTL: Musikalische Würfelspiele, Kontre-Tänze
!!!SCA: K<sup>6</sup> Anh. C30.01 (K<sup>3</sup> Anh. 294d)
**kern	**kern
*staff2	*staff2
*clefF4	*clefG2
*M2/4	*M2/4
*MM110	*MM110
*>[A,A1,A,A2,B]	*>[A,A1,A,A2,B]
*>norep[A,A2,B]	*>norep[A,A2,B]
*>A	*>A
=165	=165
4C	8cc
.	16ee
.	16cc
4r	8g
.	8g
=68	=68
4C	8gg
.	16gg
.	16ee
4r	8cc
.	16cc
.	16ee
=8	=8
4GG	8dd
.	8ff
4GG	8b
.	8dd
=69	=69
4C	8cc
.	16g
.	16e
4r	8c
.	8c
=82	=82
16D	4dd
16F#	.
16A	.
16G	.
16F#	8dd
16D	.
16E	8dd
16F#	.
=92	=92
4G	8gg
.	8dd
4r	8b
.	8g
=49	=49
4C	16ee
.	16cc
.	16b
.	16a
8D	16g
.	16b
8DD	16f#
.	16a
=130	=130
*>A1	*>A1
4GG	4g 4b 4gg
16G	4r
16F	.
16E	.
16D	.
=130:|!	=130:|!
*>A2	*>A2
4GG	4g 4b 4gg
16GG	4r
16AA	.
16BB	.
16C#	.
=144||	=144||
*>B	*>B
4D	8d
.	16f#
.	16a
4D	8dd
.	8ff#
=104	=104
4G	8gg
.	16ddd
.	16bb
4GG	4gg
=138	=138
16C	8gg
16E	.
16G	4ee
16E	.
16C	.
16E	.
16G	8cc
16E	.
=126	=126
4GG	8b
.	8dd
16G	4g
16F	.
16E	.
16D	.
=151	=151
16C	4cc
16E	.
16G	.
16E	.
4C	8ee
.	8gg
=48	=48
4C	8cc
.	16cc
.	16ee
4r	8gg
.	16gg
.	16ee
=154	=154
4G	8ff
.	8dd
4GG	8cc
.	8b
=127	=127
4C	4cc
4CC	4c
==	==
*-	*-
